X: 1
T: the Soup Dragon
C: Gordon Duncan 2007
R: jig
Z: 2014 John Chambers <jc:trillian.mit.edu>
S: Page from Concord Slow Scottish Session collection, labelled "Dunkeld Bridge Fiddle Week, September 2012".
M: 6/8
L: 1/8
K: Bm
|:\
fBB ({d}BAB) | eff ({a}fed) | eee ({f}e2d) | eff (ede) |\
fBB (BAB) | eff (fed) | eee (f2e) | dBA B3 :|
faa afe | eff fed | eee (e2d) | eff ede |\
faa afe | eff fed | eee (f2e) | dBA B3 |]
faa afe | eff fed | eee (e2d) | eff ede |\
fBB (BAB) | eff (fed) | eee (f2e) | dBA B3 :|

%%sep 1 1 500

